archive-search.svg

<svg fill="currentColor" viewBox="0 0 24 24"><path d="M20 6H2V2h18zm-8.97 6H8v-1.5c0-.28.22-.5.5-.5h4.54c1.8-1.13 4.03-1.3 5.96-.5V7H3v13h8.82c-2.12-2.2-2.38-5.5-.79-8m12.36 9L22 22.39l-3.12-3.07c-.69.43-1.51.68-2.38.68-2.5 0-4.5-2-4.5-4.5s2-4.5 4.5-4.5 4.5 2 4.5 4.5c0 .88-.25 1.71-.69 2.4zM19 15.5a2.5 2.5 0 0 0-5 0 2.5 2.5 0 0 0 5 0"/></svg>

<svg  viewBox="0 0 24 24" fill="currentColor"><path  d="M20 6H2V2H20V6M11.03 12H8V10.5C8 10.22 8.22 10 8.5 10H13.04C14.84 8.87 17.07 8.7 19 9.5V7H3V20H11.82C9.7 17.8 9.44 14.5 11.03 12M23.39 21L22 22.39L18.88 19.32C18.19 19.75 17.37 20 16.5 20C14 20 12 18 12 15.5S14 11 16.5 11 21 13 21 15.5C21 16.38 20.75 17.21 20.31 17.9L23.39 21M19 15.5C19 14.12 17.88 13 16.5 13S14 14.12 14 15.5 15.12 18 16.5 18 19 16.88 19 15.5Z"/></svg>
